COLOR/mimes 16/16/application-x-php.svg

<svg height="16" viewBox="0 0 4.233125 4.233125" width="16" xmlns="http://www.w3.org/2000/svg" xmlns:xlink="http://www.w3.org/1999/xlink"><linearGradient id="a" gradientTransform="matrix(0 -.00953618 .00953591 0 -.942985 4.473643)" gradientUnits="userSpaceOnUse" x1="459.03448" x2="35.310345" y1="419.23337" y2="207.36522"><stop offset="0" stop-color="#f2f2f2"/><stop offset="1" stop-color="#f9f9f9"/></linearGradient><path d="m1.3483185.26457026c-.1902366 0-.3444309.003678-.48573255.0273883-.14130436.02373198-.28264046.07309551-.39065659.18085764-.10801348.10775949-.15783472.24955066-.18137354.39116985-.02354675.14162185-.02677187.29644575-.02584852.48728565v.7652908 1.0314115c-.00079371.1900038.002381.3445631.0258485.4857352.0235468.1416192.0733574.2834104.18137354.3911699.10801613.1077621.24935223.1571389.39065659.1808576.14130167.023732.29549597.027388.48573257.027388h1.5367831c.1902367 0 .3440949-.00362.4852167-.027388.1411245-.0237584.2824765-.0735294.3901381-.1813736.1076616-.1078441.1571653-.249413.1808576-.3906539.0236949-.1412435.0273883-.2951308.0273883-.4857352v-1.0314115-.7668412c0-.1906044-.0037-.3444917-.027388-.48573525-.0236794-.14124086-.0731963-.28280979-.1808579-.39065394s-.2490136-.1576257-.3901381-.18137353c-.1411218-.02375048-.29498-.02738832-.4852167-.02738832z" opacity=".1"/><path d="m1.3485196.26457026c-.74283142 0-.82275812.0762994-.81911762.82063364v1.0313586 1.0313586c-.003651.7443342.0762862.8206336.81911762.8206336h1.5364921c.7428341 0 .8191203-.076289.8191203-.8206336v-1.0313586-1.0313586c0-.74434214-.076289-.82063364-.8191203-.82063364z" fill="none" opacity=".2" stroke="#000" stroke-width=".529141"/><path d="m1.3485196.26457026c-.74283142 0-.82275812.0762994-.81911762.82063364v1.0313586 1.0313586c-.003651.7443342.0762862.8206336.81911762.8206336h1.5364921c.7428341 0 .8191203-.076289.8191203-.8206336v-1.0313586-1.0313586c0-.74434214-.076289-.82063364-.8191203-.82063364z" fill="url(#a)"/><path d="m2.0965736 1.4762045c-.060317.0000052-.1218187.0082-.1844954.024764-.062677.015372-.1170618.03791-.163187.067473l.074492.2004305c.046123-.023653.088097-.040807.1259408-.051451.037842-.010636.077995-.015927.1205699-.015927.042572 0 .074511.010027.095798.030129.022462.020107.033778.044289.033778.072675 0 .034294-.011324.065045-.033778.092245-.022462.026034-.047292.05266-.07449.079861-.018917.018917-.037265.038447-.055002.058552-.017726.020107-.033709.042006-.0479.065653-.01299.022462-.023573.047292-.031881.074492-.00825.026034-.012461.055581-.012461.088695v.038979c.00132.014181.00296.027251.00534.039064h.2341236c-.00132-.00712-.00159-.015398-.00159-.02487v-.021298c0-.020107.0041-.039545.012408-.058467.00825-.020107.018335-.03908.030127-.056819.01299-.017726.027251-.034257.042617-.049631.015372-.016562.030161-.031981.044347-.046168.018917-.018917.03845-.038998.058552-.060285.020107-.021298.037812-.043733.053184-.067386s.02778-.049112.037244-.07631c.010662-.028375.015927-.059134.015927-.092248 0-.033111-.00585-.067973-.017673-.1046322-.0106283-.0366582-.0301536-.07042-.0585473-.1011657-.0283751-.0307563-.0674363-.0561207-.1171067-.0762254-.0484852-.0201073-.1105375-.0301266-.1862231-.0301266zm-.5399695.2962287-.76274558.3210905v.2199162l.76274558.3210904.0692063-.2146353-.557029-.2164555.557029-.2163683zm1.1201246 0-.069119.214638.5569444.2163683-.5569444.2164555.069119.2146353.762833-.3210904v-.2199162zm-.6068344.6581161c-.042575 0-.08099.014155-.1152865.042527-.033114.028375-.049633.068622-.049633.1206573 0 .052033.016536.092274.049633.1206573.034296.028375.072712.04253.1152865.04253.042572 0 .08044-.014155.1135536-.04253.034296-.028375.051448-.068624.051448-.1206573 0-.052036-.017171-.092277-.051448-.1206573-.033114-.028375-.070982-.042527-.1135536-.042527z" fill="#8f76e4"/><g fill="#fff"><path d="m2.1167101.26457026v3.70398444h.7683915c.7428341 0 .8190304-.076236.8190304-.8205807v-1.0314115-1.0314115c0-.74434216-.076199-.82058074-.8190304-.82058074z" opacity=".2"/><path d="m.52928821 2.1165625v1.0314115c-.003651.7443342.0761989.8205807.81903029.8205807h1.5367831c.7428341 0 .8190304-.076236.8190304-.8205807v-1.0314115z" opacity=".2"/></g></svg>

<?xml version="1.0" encoding="UTF-8" standalone="no"?>
<svg
   xmlns:dc="http://purl.org/dc/elements/1.1/"
   xmlns:cc="http://creativecommons.org/ns#"
   xmlns:rdf="http://www.w3.org/1999/02/22-rdf-syntax-ns#"
   xmlns:svg="http://www.w3.org/2000/svg"
   xmlns="http://www.w3.org/2000/svg"
   xmlns:xlink="http://www.w3.org/1999/xlink"
   xmlns:sodipodi="http://sodipodi.sourceforge.net/DTD/sodipodi-0.dtd"
   xmlns:inkscape="http://www.inkscape.org/namespaces/inkscape"
   width="16"
   height="16"
   version="1.1"
   viewBox="0 0 4.233125 4.233125"
   id="svg53"
   sodipodi:docname="application-x-perl.svg"
   inkscape:version="0.92.4 (5da689c313, 2019-01-14)">
  <metadata
     id="metadata57">
    <rdf:RDF>
      <cc:Work
         rdf:about="">
        <dc:format>image/svg+xml</dc:format>
        <dc:type
           rdf:resource="http://purl.org/dc/dcmitype/StillImage" />
        <dc:title></dc:title>
      </cc:Work>
    </rdf:RDF>
  </metadata>
  <sodipodi:namedview
     pagecolor="#ffffff"
     bordercolor="#666666"
     borderopacity="1"
     objecttolerance="10"
     gridtolerance="10"
     guidetolerance="10"
     inkscape:pageopacity="0"
     inkscape:pageshadow="2"
     inkscape:window-width="1568"
     inkscape:window-height="950"
     id="namedview55"
     showgrid="false"
     inkscape:zoom="48.312462"
     inkscape:cx="8.0002833"
     inkscape:cy="8.0000063"
     inkscape:window-x="0"
     inkscape:window-y="27"
     inkscape:window-maximized="0"
     inkscape:current-layer="svg53" />
  <defs
     id="defs17">
    <linearGradient
       id="linearGradient4226"
       x1="529.65503"
       x2="-35.310001"
       y1="401.58401"
       y2="119.093"
       gradientTransform="matrix(0,-0.11988932,0.11988589,0,0.36277965,292.81289)"
       gradientUnits="userSpaceOnUse">
      <stop
         style="stop-color:#f2f2f2"
         offset="0"
         id="stop2" />
      <stop
         style="stop-color:#f9f9f9"
         offset="1"
         id="stop4" />
    </linearGradient>
    <linearGradient
       id="linearGradient4358"
       x1="88"
       x2="488"
       y1="88"
       y2="488"
       gradientUnits="userSpaceOnUse">
      <stop
         style="stop-color:#000000;stop-opacity:.58823532"
         offset="0"
         id="stop7" />
      <stop
         style="stop-color:#000000;stop-opacity:0"
         offset=".88"
         id="stop9" />
      <stop
         style="stop-color:#000000"
         offset="1"
         id="stop11" />
    </linearGradient>
    <filter
       id="filter4346"
       width="1.026"
       height="1.022"
       x="-0.0099999998"
       y="-0.0099999998"
       style="color-interpolation-filters:sRGB">
      <feGaussianBlur
         stdDeviation="2.12"
         id="feGaussianBlur14" />
    </filter>
    <clipPath
       clipPathUnits="userSpaceOnUse"
       id="clipPath983">
      <path
         sodipodi:nodetypes="scccssscsss"
         inkscape:connector-curvature="0"
         id="path985"
         d="m 325.09646,237 c -2.80769,0 -3.10979,0.28839 -3.09603,3.10176 V 244 v 3.89824 c -0.0138,2.81337 0.28834,3.10176 3.09603,3.10176 h 5.8075 C 333.71166,251 334,250.71165 334,247.89824 V 244 240.10176 C 334,237.28836 333.71165,237 330.90396,237 Z"
         style="color:#000000;display:inline;overflow:visible;visibility:visible;opacity:1;fill:#46a926;fill-opacity:1;fill-rule:nonzero;stroke:none;stroke-width:2;stroke-miterlimit:4;stroke-dasharray:none;stroke-opacity:1;marker:none;enable-background:accumulate" />
    </clipPath>
    <linearGradient
       inkscape:collect="always"
       xlink:href="#linearGradient4338"
       id="linearGradient920"
       gradientUnits="userSpaceOnUse"
       gradientTransform="matrix(0,-0.00953618,0.00953591,0,-0.94298468,4.4736432)"
       x1="459.03448"
       y1="419.23337"
       x2="35.310345"
       y2="207.36522" />
    <linearGradient
       inkscape:collect="always"
       id="linearGradient4338">
      <stop
         style="stop-color:#f2f2f2;stop-opacity:1"
         offset="0"
         id="stop4340" />
      <stop
         style="stop-color:#f9f9f9;stop-opacity:1"
         offset="1"
         id="stop4342" />
    </linearGradient>
  </defs>
  <path
     style="color:#000000;font-style:normal;font-variant:normal;font-weight:normal;font-stretch:normal;font-size:medium;line-height:normal;font-family:sans-serif;font-variant-ligatures:normal;font-variant-position:normal;font-variant-caps:normal;font-variant-numeric:normal;font-variant-alternates:normal;font-feature-settings:normal;text-indent:0;text-align:start;text-decoration:none;text-decoration-line:none;text-decoration-style:solid;text-decoration-color:#000000;letter-spacing:normal;word-spacing:normal;text-transform:none;writing-mode:lr-tb;direction:ltr;text-orientation:mixed;dominant-baseline:auto;baseline-shift:baseline;text-anchor:start;white-space:normal;shape-padding:0;clip-rule:nonzero;display:inline;overflow:visible;visibility:visible;opacity:0.1;isolation:auto;mix-blend-mode:normal;color-interpolation:sRGB;color-interpolation-filters:linearRGB;solid-color:#000000;solid-opacity:1;vector-effect:none;fill:#000000;fill-opacity:1;fill-rule:nonzero;stroke:none;stroke-width:0.52914065;stroke-linecap:butt;stroke-linejoin:miter;stroke-miterlimit:4;stroke-dasharray:none;stroke-dashoffset:0;stroke-opacity:1;marker:none;color-rendering:auto;image-rendering:auto;shape-rendering:auto;text-rendering:auto;enable-background:accumulate"
     d="m 1.3483185,0.26457026 c -0.1902366,0 -0.3444309,0.003678 -0.48573255,0.0273883 C 0.72128159,0.31569054 0.57994549,0.36505407 0.47192936,0.4728162 0.36391588,0.58057569 0.31409464,0.72236686 0.29055582,0.86398605 0.26700907,1.0056079 0.26378395,1.1604318 0.2647073,1.3512717 V 2.1165625 3.147974 c -7.9371e-4,0.1900038 0.002381,0.3445631 0.0258485,0.4857352 0.0235468,0.1416192 0.0733574,0.2834104 0.18137354,0.3911699 0.10801613,0.1077621 0.24935223,0.1571389 0.39065659,0.1808576 0.14130167,0.023732 0.29549597,0.027388 0.48573257,0.027388 h 1.5367831 c 0.1902367,0 0.3440949,-0.00362 0.4852167,-0.027388 C 3.5114428,4.1819783 3.6527948,4.1322073 3.7604564,4.0243631 3.868118,3.916519 3.9176217,3.7749501 3.941314,3.6337092 3.9650089,3.4924657 3.9687023,3.3385784 3.9687023,3.147974 V 2.1165625 1.3497213 c 0,-0.1906044 -0.0037,-0.3444917 -0.027388,-0.48573525 C 3.9176349,0.72274519 3.868118,0.58117626 3.7604564,0.47333211 3.6527948,0.36548796 3.5114428,0.31570641 3.3703183,0.29195858 3.2291965,0.2682081 3.0753383,0.26457026 2.8851016,0.26457026 Z"
     id="path997"
     inkscape:connector-curvature="0"
     sodipodi:nodetypes="scscccccccsscscscscscss" />
  <path
     sodipodi:nodetypes="scccssscsss"
     inkscape:connector-curvature="0"
     id="path928"
     d="m 1.3485196,0.26457026 c -0.74283142,0 -0.82275812,0.0762994 -0.81911762,0.82063364 v 1.0313586 1.0313586 c -0.003651,0.7443342 0.0762862,0.8206336 0.81911762,0.8206336 h 1.5364921 c 0.7428341,0 0.8191203,-0.076289 0.8191203,-0.8206336 V 2.1165625 1.0852039 c 0,-0.74434214 -0.076289,-0.82063364 -0.8191203,-0.82063364 z"
     style="color:#000000;display:inline;overflow:visible;visibility:visible;opacity:0.2;fill:none;fill-opacity:1;fill-rule:nonzero;stroke:#000000;stroke-width:0.52914065;stroke-miterlimit:4;stroke-dasharray:none;stroke-opacity:1;marker:none;enable-background:accumulate" />
  <path
     style="color:#000000;display:inline;overflow:visible;visibility:visible;fill:url(#linearGradient920);fill-opacity:1;fill-rule:nonzero;stroke:none;stroke-width:0.26457033;marker:none;enable-background:accumulate"
     d="m 1.3485196,0.26457026 c -0.74283142,0 -0.82275812,0.0762994 -0.81911762,0.82063364 v 1.0313586 1.0313586 c -0.003651,0.7443342 0.0762862,0.8206336 0.81911762,0.8206336 h 1.5364921 c 0.7428341,0 0.8191203,-0.076289 0.8191203,-0.8206336 V 2.1165625 1.0852039 c 0,-0.74434214 -0.076289,-0.82063364 -0.8191203,-0.82063364 z"
     id="path918"
     inkscape:connector-curvature="0"
     sodipodi:nodetypes="scccssscsss" />
  <path
     style="font-style:normal;font-variant:normal;font-weight:bold;font-stretch:normal;font-size:medium;line-height:1000%;font-family:Ubuntu;-inkscape-font-specification:'Ubuntu Bold';letter-spacing:0px;word-spacing:0px;display:inline;vector-effect:none;fill:#8f76e4;fill-opacity:1;stroke:none;stroke-width:0.26457033px;stroke-linecap:butt;stroke-linejoin:miter;stroke-miterlimit:4;stroke-dasharray:none;stroke-dashoffset:0;stroke-opacity:1;enable-background:new"
     d="m 2.0965736,1.4762045 c -0.060317,5.2e-6 -0.1218187,0.0082 -0.1844954,0.024764 -0.062677,0.015372 -0.1170618,0.03791 -0.163187,0.067473 L 1.8233832,1.768872 C 1.8695062,1.745219 1.9114802,1.728065 1.949324,1.717421 1.987166,1.706785 2.027319,1.701494 2.0698939,1.701494 c 0.042572,0 0.074511,0.010027 0.095798,0.030129 0.022462,0.020107 0.033778,0.044289 0.033778,0.072675 0,0.034294 -0.011324,0.065045 -0.033778,0.092245 -0.022462,0.026034 -0.047292,0.05266 -0.07449,0.079861 -0.018917,0.018917 -0.037265,0.038447 -0.055002,0.058552 -0.017726,0.020107 -0.033709,0.042006 -0.0479,0.065653 -0.01299,0.022462 -0.023573,0.047292 -0.031881,0.074492 -0.00825,0.026034 -0.012461,0.055581 -0.012461,0.088695 v 0.038979 c 0.00132,0.014181 0.00296,0.027251 0.00534,0.039064 h 0.2341236 c -0.00132,-0.00712 -0.00159,-0.015398 -0.00159,-0.02487 V 2.295671 c 0,-0.020107 0.0041,-0.039545 0.012408,-0.058467 0.00825,-0.020107 0.018335,-0.03908 0.030127,-0.056819 0.01299,-0.017726 0.027251,-0.034257 0.042617,-0.049631 0.015372,-0.016562 0.030161,-0.031981 0.044347,-0.046168 0.018917,-0.018917 0.03845,-0.038998 0.058552,-0.060285 0.020107,-0.021298 0.037812,-0.043733 0.053184,-0.067386 0.015372,-0.023653 0.02778,-0.049112 0.037244,-0.07631 0.010662,-0.028375 0.015927,-0.059134 0.015927,-0.092248 0,-0.033111 -0.00585,-0.067973 -0.017673,-0.1046322 C 2.4479362,1.6470666 2.4284109,1.6133048 2.4000172,1.5825591 2.3716421,1.5518028 2.3325809,1.5264384 2.2829105,1.5063337 2.2344253,1.4862264 2.172373,1.4762071 2.0966874,1.4762071 Z M 1.5566041,1.7724332 0.79385852,2.0935237 V 2.3134399 L 1.5566041,2.6345303 1.6258104,2.419895 1.0687814,2.2034395 1.6258104,1.9870712 Z m 1.1201246,0 -0.069119,0.214638 0.5569444,0.2163683 -0.5569444,0.2164555 0.069119,0.2146353 0.762833,-0.3210904 V 2.0935237 Z M 2.0698943,2.4305493 c -0.042575,0 -0.08099,0.014155 -0.1152865,0.042527 -0.033114,0.028375 -0.049633,0.068622 -0.049633,0.1206573 0,0.052033 0.016536,0.092274 0.049633,0.1206573 0.034296,0.028375 0.072712,0.04253 0.1152865,0.04253 0.042572,0 0.08044,-0.014155 0.1135536,-0.04253 0.034296,-0.028375 0.051448,-0.068624 0.051448,-0.1206573 0,-0.052036 -0.017171,-0.092277 -0.051448,-0.1206573 -0.033114,-0.028375 -0.070982,-0.042527 -0.1135536,-0.042527 z"
     id="path1085"
     inkscape:connector-curvature="0" />
  <path
     style="color:#000000;display:inline;overflow:visible;visibility:visible;opacity:0.2;fill:#ffffff;fill-opacity:1;fill-rule:nonzero;stroke:none;stroke-width:0.26457033;marker:none;enable-background:accumulate"
     d="M 2.1167101,0.26457026 V 3.9685547 h 0.7683915 c 0.7428341,0 0.8190304,-0.076236 0.8190304,-0.8205807 V 2.1165625 1.085151 c 0,-0.74434216 -0.076199,-0.82058074 -0.8190304,-0.82058074 z"
     id="path1009"
     inkscape:connector-curvature="0" />
  <path
     style="color:#000000;display:inline;overflow:visible;visibility:visible;opacity:0.2;fill:#ffffff;fill-opacity:1;fill-rule:nonzero;stroke:none;stroke-width:0.26457033;marker:none;enable-background:accumulate"
     d="M 0.52928821,2.1165625 V 3.147974 c -0.003651,0.7443342 0.0761989,0.8205807 0.81903029,0.8205807 h 1.5367831 c 0.7428341,0 0.8190304,-0.076236 0.8190304,-0.8205807 V 2.1165625 Z"
     id="path1016"
     inkscape:connector-curvature="0" />
</svg>
